libs/ui/packages/crypto-icons/src/svg/CNX.svg

<svg width="24" height="24" viewBox="0 0 24 24" fill="none">
<path opacity="0.5" fill-rule="evenodd" clip-rule="evenodd" d="M4.78725 12.7575L3.75 12.8647C4.305 11.3122 5.40225 10.0702 7.04325 9.13875C7.1985 10.4257 7.80825 11.49 8.87325 12.333L7.89825 12.4342C7.99324 13.3295 8.37833 14.1691 8.99483 14.8251C9.61132 15.4811 10.4254 15.9176 11.313 16.068C10.6594 16.5597 9.88566 16.8666 9.07275 16.9567C9.5835 17.8567 10.188 18.594 10.8855 19.167C9.30453 18.9206 7.84936 18.1585 6.74644 16.9993C5.64352 15.84 4.95473 14.3488 4.78725 12.7575ZM19.2128 11.2425L20.25 11.1352C19.695 12.6877 18.5977 13.9297 16.9567 14.8612C16.8015 13.5742 16.1918 12.51 15.1268 11.667L16.1017 11.5657C16.0058 10.6611 15.6136 9.81345 14.9861 9.15468C14.3587 8.49591 13.5312 8.06291 12.6322 7.923C13.2836 7.43643 14.0532 7.13271 14.8612 7.04325C14.346 6.1365 13.737 5.39625 13.0328 4.821C14.6304 5.0514 16.1056 5.80799 17.2249 6.97104C18.3442 8.1341 19.0437 9.6372 19.2128 11.2425Z" fill="#4C6BAE"/>
<path fill-rule="evenodd" clip-rule="evenodd" d="M12.6915 19.2195L12.7987 20.25C11.2462 19.695 10.0042 18.5977 9.07273 16.9567C10.359 16.8015 11.4232 16.1918 12.2662 15.1268L12.3682 16.1093C13.2858 16.0268 14.1494 15.6396 14.8215 15.0095C15.4936 14.3794 15.9355 13.5426 16.077 12.6322C16.5635 13.2836 16.8673 14.0532 16.9567 14.8612C17.8635 14.346 18.6037 13.737 19.179 13.0328C18.947 14.6417 18.1814 16.1261 17.005 17.2479C15.8286 18.3698 14.3096 19.0641 12.6915 19.2195ZM11.2425 4.78725L11.1352 3.75C12.6877 4.305 13.9297 5.40225 14.8612 7.04325C13.5742 7.1985 12.51 7.80825 11.667 8.87325L11.5657 7.89825C10.6611 7.99422 9.81343 8.38642 9.15466 9.01386C8.49589 9.6413 8.06289 10.4688 7.92298 11.3677C7.43642 10.7164 7.1327 9.94685 7.04323 9.13875C6.13648 9.654 5.39623 10.263 4.82098 10.9672C5.05138 9.3696 5.80797 7.89441 6.97103 6.77509C8.13408 5.65578 9.63718 4.95627 11.2425 4.78725Z" fill="#4C6BAE"/>
</svg>

<svg width="24" height="24" viewBox="0 0 24 24" fill="none"><path fill="#4c6bae" fill-rule="evenodd" d="m4.787 12.758-1.037.107q.832-2.33 3.293-3.726.232 1.93 1.83 3.194l-.975.101a4.13 4.13 0 0 0 3.415 3.634 4.56 4.56 0 0 1-2.24.889q.765 1.35 1.813 2.21a7.255 7.255 0 0 1-6.099-6.41m14.426-1.515 1.037-.108q-.832 2.33-3.293 3.726-.232-1.93-1.83-3.194l.975-.101a4.13 4.13 0 0 0-3.47-3.643 4.56 4.56 0 0 1 2.23-.88q-.773-1.36-1.83-2.222a7.255 7.255 0 0 1 6.18 6.422" clip-rule="evenodd" opacity=".5"/><path fill="#4c6bae" fill-rule="evenodd" d="m12.692 19.22.107 1.03q-2.33-.832-3.726-3.293 1.929-.232 3.193-1.83l.102.982a4.13 4.13 0 0 0 3.709-3.477c.486.652.79 1.421.88 2.23q1.36-.773 2.222-1.83a7.255 7.255 0 0 1-6.487 6.188m-1.45-14.433-.107-1.037q2.33.832 3.726 3.293-1.93.232-3.194 1.83l-.101-.975a4.13 4.13 0 0 0-3.643 3.47 4.56 4.56 0 0 1-.88-2.23q-1.36.773-2.222 1.83a7.256 7.256 0 0 1 6.422-6.18" clip-rule="evenodd"/></svg>
